X:1
T:Title
%%score { ( 1 4 ) | ( 2 3 ) }
L:1/8
M:4/4
K:D
V:1 treble nm="Grand Piano"
V:4 treble 
V:2 treble 
V:3 treble 
V:1
 z8[Q:1/4=100] | [GB]^A[GB][Bd] [Be]2 [GB]2 | z2 [DF]4 z2 | z2 [FA=cd]2 [Acd]2 d^c | z2 [GB]4 z2 | %5
 [GB]^A[GB][Bd] [Be]2 [GB]2 | z2 [DF]4 z2 | [GAc]2 [GAc]2 [GAc]2 [GAe]2 | [FAd]2 [Ad]2 [Ad]2 z2 | %9
 [A=c]c[Ac][Ac] [Ac][ce][Bd]^c | z2 [GB]4[K:bass] z2 | [F=cd]2 [Fcd]2 [Fcd]2 z2 | d2 d2 d2 DG | %13
 [GB]^A[GB][Bd] [Ge]2 [=FB]2 | z2 [E=c]4 z2 |[M:9/8] BD>B- B<Dd- d [Fd]2 |[M:4/4] [G,B,DG]6 z2 | %17
 [Bd]c[Bd][^Ac] [Bd]2 [DB]2 | [E^A]4 [DB]4 | [Fd]4 [=cd]4 | [Gd]4 [Bd]4 | %21
 [Bd]c[Bd][^Ac] [Bd]2 [DB]2 | [E=c]4 [ce]4 | d6 z2 |[M:3/4] [DGB]6 |] %25
V:2
 z4 z2 DG | z G [D,G,B,]2 [D,G,B,]2 [D,G,B,]2 | D,,2 D,2 D,2 =CB, | =C2 z2[K:treble] F2 B^A | %4
 G,,2 [D,G,B,]2 D,2[K:treble] DG | z G [D,G,B,]2 [D,G,B,]2 [D,G,B,]2 | D,,2 D,2 D,2 A,A, | %7
 ^G,A,B,A, B,2[K:treble] C2 | z2 F2 F2 DD | z A [D,F,=C]2 [D,F,C]2 z[K:treble] ^A | %10
 G,,2 [D,G,B,]2 [D,G,]2 z2 | .[A,=C]2 .[A,C]2 [A,C]C[B,DB][^A,^C^A] | [GB]2 [GB]2 [GB]2 z2 | %13
 z G [D,G,B,]2 [D,G,B,]2 [D,G,B,]2 | =C,,2 [=C,G,=C]2 [C,G,]2 [C,G,][C,G,] | %15
[M:9/8] [D,G,D][D,G,B,]>[D,G,D]- [D,G,D]<[D,G,B,][D,F,D]- [D,F,D] [D,=C]2 |[M:4/4] G,,6 z2 | %17
 z[K:treble] ^A[K:bass] [D,G,B,]2 [D,G,B,]2 [D,G,B,]2 | [G,^A,C]2 G,2 G,2 G,2 | %19
 D,,2 D,2 [D,F,D]2 D,2 | G,,2 D,2 [D,G,B,]2 D,2 | %21
 z[K:treble] ^A[K:bass] [D,G,B,]2 [D,G,B,]2 [D,G,B,]2 | =C,,2 =C,2 [C,G,=C]2 C,2 | %23
 D,,2 [D,F,=C]2 [D,F,D]2 [D,F,D]2 |[M:3/4] [G,,G,]6 |] %25
V:3
 x8 | G,,2 z2 z4 | x8 | z2 D,4[K:treble] z2 | x6[K:treble] x2 | G,,2 z2 z4 | x8 | x6[K:treble] x2 | %8
 D6 z2 | D,,2 z2 z2 [D,F,=C]2[K:treble] | x8 | x8 | [B,D]6 z2 | G,,2 z2 z4 | x8 |[M:9/8] x9 | %16
[M:4/4] x8 | G,,2[K:treble][K:bass] z2 z4 | x8 | x8 | x8 | G,,2[K:treble][K:bass] z2 z4 | x8 | x8 | %24
[M:3/4] x6 |] %25
V:4
 x8 | x8 | [Fd]2 [A,=C]2 [A,C]2 z2 | x8 | [Bd]2 z2 [G,B,]2 z2 | x8 | [Fd]2 [A,=C]2 [A,C]2 z2 | x8 | %8
 x8 | x8 | [Bd]2 z2[K:bass] B,2 D,D, | z [A,=C] z [A,C] z Ed^c | x8 | x8 | [Ed]2 z2 =C2 [EG][^DA] | %15
[M:9/8] x9 |[M:4/4] x8 | x8 | z2 [^A,C]2 B,2 B,2 | z2 [F,D]2 z2 [F,D]2 | z2 [G,B,]2 z2 [G,B,]2 | %21
 x8 | z2 [G,=C]2 z2 [G,C]2 | FGAB =c2 [Fd]2 |[M:3/4] x6 |] %25

